!!!COM: Fux, Johann Joseph
!!!OMD: Gradus ad Parnassum Exercise
!!!YEC: CC0 1.0 Universal (Public Domain). Mark Gotham and FourScoreAndMore.org waive all rights to this document.
**kern	**kern	**kern
*part3	*part2	*part1
*staff3	*staff2	*staff1
*I"3	*I"2	*I"1
*I'Pno	*I'Pno	*I'Pno
!!LO:LB:g=z
*clefF4	*clefGv2	*clefG2
*k[]	*k[]	*k[]
!!LO:TX:omd:t=
*M4/4	*M4/4	*M4/4
=275	=275	=275
!	!	!LO:TX:a:t=Fig. 129; Species&colon; 2; Modal final&colon; f; Cantus firmus&colon; 2
2r	1F	1c
2F\	.	.
=276	=276	=276
2E\	1G	1c
2C/	.	.
=277	=277	=277
2F\	1A	1c
2E\	.	.
=278	=278	=278
2D\	1F	1d
2C/	.	.
=279	=279	=279
2BB-X/	1D	1f
2AA/	.	.
=280	=280	=280
2GG/	1E	1g
2C/	.	.
=281	=281	=281
2FF/	1F	1a
2F\	.	.
=282	=282	=282
2E\	1c	1g
2C/	.	.
=283	=283	=283
2F\	1A	1c
2E\	.	.
=284	=284	=284
2D\	1F	1d
2BB-X/	.	.
=285	=285	=285
2GG/	1G	1e
2C/	.	.
=286	=286	=286
1FF	1F	1f
==	==	==
*-	*-	*-
!!!software: music21 v.9.7.1
!!!software: music21 v.9.7.1
!!!software: MuseScore 3.4.2
!!!RDF**kern: > = above
!!!RDF**kern: < = below
